resources/icons/16px/layout-group-by.svg

<svg xmlns="http://www.w3.org/2000/svg" viewBox="0 0 16 16">
  <path d="M2 6C.9 6 0 6.9 0 8s.9 2 2 2 2-.9 2-2-.9-2-2-2m0 5c-1.1 0-2 .9-2 2s.9 2 2 2 2-.9 2-2-.9-2-2-2m12-7c1.1 0 2-.9 2-2s-.9-2-2-2-2 .9-2 2 .9 2 2 2M2 1C.9 1 0 1.9 0 3s.9 2 2 2 2-.9 2-2-.9-2-2-2m7 8c-1.1 0-2 .9-2 2s.9 2 2 2 2-.9 2-2-.9-2-2-2m0-6c-1.1 0-2 .9-2 2s.9 2 2 2 2-.9 2-2-.9-2-2-2m5 3c-1.1 0-2 .9-2 2s.9 2 2 2 2-.9 2-2-.9-2-2-2m0 6c-1.1 0-2 .9-2 2s.9 2 2 2 2-.9 2-2-.9-2-2-2"/>
</svg>

<?xml version="1.0" encoding="utf-8"?>
<!-- Generator: Adobe Illustrator 17.1.0, SVG Export Plug-In . SVG Version: 6.00 Build 0)  -->
<!DOCTYPE svg PUBLIC "-//W3C//DTD SVG 1.1//EN" "http://www.w3.org/Graphics/SVG/1.1/DTD/svg11.dtd">
<svg version="1.1" id="Layer_1" xmlns="http://www.w3.org/2000/svg" xmlns:xlink="http://www.w3.org/1999/xlink" x="0px" y="0px"
	 viewBox="0 0 16 16" enable-background="new 0 0 16 16" xml:space="preserve">
<g id="layout_group_3_">
	<g>
		<path fill-rule="evenodd" clip-rule="evenodd" d="M2,6C0.9,6,0,6.9,0,8c0,1.1,0.9,2,2,2s2-0.9,2-2C4,6.9,3.1,6,2,6z M2,11
			c-1.1,0-2,0.9-2,2c0,1.1,0.9,2,2,2s2-0.9,2-2C4,11.9,3.1,11,2,11z M14,4c1.1,0,2-0.9,2-2s-0.9-2-2-2s-2,0.9-2,2S12.9,4,14,4z M2,1
			C0.9,1,0,1.9,0,3s0.9,2,2,2s2-0.9,2-2S3.1,1,2,1z M9,9c-1.1,0-2,0.9-2,2c0,1.1,0.9,2,2,2s2-0.9,2-2C11,9.9,10.1,9,9,9z M9,3
			C7.9,3,7,3.9,7,5s0.9,2,2,2s2-0.9,2-2S10.1,3,9,3z M14,6c-1.1,0-2,0.9-2,2c0,1.1,0.9,2,2,2s2-0.9,2-2C16,6.9,15.1,6,14,6z M14,12
			c-1.1,0-2,0.9-2,2c0,1.1,0.9,2,2,2s2-0.9,2-2C16,12.9,15.1,12,14,12z"/>
	</g>
</g>
</svg>
